X: 188
T:Untitled. HA.187
M:3/4
L:1/8
Q:1/4=140
S:Henry Atkinson's original MS,Hartburn,N'umberland,1694.
O:England
A:Hartburn,Northumberland
H:1/8
Z:vmp.Neil Brookes, Jan.2004
K:Amin
E2|AGABcd|e2a4|gagfed|B2g4|!
efedcB|A2e4|c2dcBc|A4:|!
|:E2|AGABcd|gfgage|agab a2|e4e2|!
agfe d2|edcB A2|A2B2G2|A4:|]
